styles/1/Numix/64/places/pink-folder-publicshare.svg

<?xml version="1.0" encoding="UTF-8" standalone="no"?>
<!-- Created with Inkscape (http://www.inkscape.org/) -->

<svg
   xmlns:dc="http://purl.org/dc/elements/1.1/"
   xmlns:cc="http://creativecommons.org/ns#"
   xmlns:rdf="http://www.w3.org/1999/02/22-rdf-syntax-ns#"
   xmlns:svg="http://www.w3.org/2000/svg"
   xmlns="http://www.w3.org/2000/svg"
   xmlns:sodipodi="http://sodipodi.sourceforge.net/DTD/sodipodi-0.dtd"
   xmlns:inkscape="http://www.inkscape.org/namespaces/inkscape"
   width="64"
   height="64"
   id="svg2"
   version="1.1"
   inkscape:version="0.91 r"
   sodipodi:docname="pink-folder-publicshare.svg"
   inkscape:export-filename="/media/Data/Main/Visuals/Icons/Numix/Desktop/repos/numix-wiki/Gjorgi/Numix-folders/48/New/folder-144.png"
   inkscape:export-xdpi="270"
   inkscape:export-ydpi="270">
  <defs
     id="defs4" />
  <sodipodi:namedview
     id="base"
     pagecolor="#ffffff"
     bordercolor="#666666"
     borderopacity="1.0"
     inkscape:pageopacity="0.0"
     inkscape:pageshadow="2"
     inkscape:zoom="4.92"
     inkscape:cx="31.213742"
     inkscape:cy="8.2687894"
     inkscape:document-units="px"
     inkscape:current-layer="layer1"
     showgrid="true"
     inkscape:window-width="1280"
     inkscape:window-height="998"
     inkscape:window-x="0"
     inkscape:window-y="0"
     inkscape:window-maximized="1"
     showguides="true"
     inkscape:guide-bbox="true">
    <inkscape:grid
       type="xygrid"
       id="grid2985"
       empspacing="5"
       visible="true"
       enabled="true"
       snapvisiblegridlinesonly="true" />
  </sodipodi:namedview>
  <metadata
     id="metadata7">
    <rdf:RDF>
      <cc:Work
         rdf:about="">
        <dc:format>image/svg+xml</dc:format>
        <dc:type
           rdf:resource="http://purl.org/dc/dcmitype/StillImage" />
        <dc:title />
      </cc:Work>
    </rdf:RDF>
  </metadata>
  <g
     inkscape:label="Layer 1"
     inkscape:groupmode="layer"
     id="layer1"
     transform="translate(0,-988.3622)">
    <path
       style="font-size:medium;font-style:normal;font-variant:normal;font-weight:normal;font-stretch:normal;text-indent:0;text-align:start;text-decoration:none;line-height:normal;letter-spacing:normal;word-spacing:normal;text-transform:none;direction:ltr;block-progression:tb;writing-mode:lr-tb;text-anchor:start;baseline-shift:baseline;color:#000000;fill:#f06292;fill-opacity:1;fill-rule:nonzero;stroke:none;stroke-width:2.28612947;marker:none;visibility:visible;display:inline;overflow:visible;enable-background:accumulate;font-family:Sans;-inkscape-font-specification:Sans"
       d="M 6.0625 10 C 4.9330852 10.11097 3.9815877 11.17783 4 12.3125 L 4 51.6875 C 3.986 52.9021 5.097925 54.0139 6.3125 54 L 57.6875 54 C 58.902076 54.014 60.013966 52.9021 60 51.6875 L 60 16.3125 C 60.014 15.0979 58.902076 13.9861 57.6875 14 L 38 14 L 38 12.3125 C 38.01375 11.11874 36.943717 10.01891 35.75 10 L 6.3125 10 C 6.22925 9.995 6.14575 9.99499 6.0625 10 z M 35.84375 22 C 38.652463 22 40.96875 24.1984 40.96875 26.9375 C 40.93702 27.8957 40.91543 28.9442 40.3125 31.5625 C 40.201337 31.9051 40.000576 32.27145 39.71875 32.65625 C 39.465666 33.00185 39.139685 33.35925 38.84375 33.71875 C 38.77928 34.37555 38.78228 35.06165 38.84375 35.71875 C 39.663519 36.40695 41.159347 37.0442 42.53125 37.625 C 43.237617 37.9241 43.893096 38.20185 44.40625 38.53125 C 44.662827 38.69585 44.887957 38.8531 45.0625 39.0625 C 45.225985 39.2584 45.32735 39.50865 45.34375 39.78125 C 45.344632 39.79925 45.343653 39.82575 45.34375 39.84375 L 46 44.65625 L 46 44.71875 C 46 45.31555 45.612632 45.7997 45.0625 46.1875 C 44.512368 46.5756 43.751629 46.88545 42.84375 47.15625 C 41.027992 47.69785 38.564918 48 35.84375 48 C 33.122582 48 30.659508 47.69785 28.84375 47.15625 C 27.935871 46.88545 27.206391 46.5756 26.65625 46.1875 C 26.106119 45.7997 25.71875 45.31555 25.71875 44.71875 L 25.71875 44.65625 L 26.3125 39.84375 C 26.31241 39.81675 26.3732 39.80825 26.375 39.78125 C 26.40942 39.21055 26.758584 38.7716 27.25 38.4375 C 27.765085 38.0873 28.418871 37.82025 29.125 37.53125 C 30.479953 36.97685 31.978497 36.36955 32.8125 35.71875 C 32.920461 34.95485 32.90598 34.3357 32.8125 33.625 C 32.508274 33.2878 32.185858 32.91275 31.9375 32.59375 C 31.660013 32.23755 31.51414 31.8951 31.40625 31.5625 L 31.34375 31.5625 C 30.80906 29.0479 30.73948 27.8774 30.71875 26.9375 C 30.71875 24.1984 33.035037 22 35.84375 22 z M 26.3125 22.90625 C 27.358015 22.90625 28.357707 23.333 29.09375 23.9375 L 29.3125 24.03125 L 29.1875 24.28125 C 29.054248 24.70035 28.96875 25.14915 28.96875 25.53125 C 28.988822 26.44025 29.03416 27.453 29.5625 29.9375 C 29.640726 30.1788 29.63961 30.37485 29.6875 30.65625 L 29.75 30.78125 L 29.6875 30.90625 C 29.54571 31.25045 29.232791 31.8559 28.8125 32.4375 C 28.8107 32.4555 28.8143 32.45075 28.8125 32.46875 C 28.75579 33.02615 28.75906 33.6282 28.8125 34.1875 C 29.087834 34.4094 29.406376 34.6567 29.84375 34.875 L 30.46875 35.15625 L 29.84375 35.46875 C 28.736925 36.06025 27.373038 36.5137 26.28125 37 C 25.735351 37.2431 25.246549 37.5036 24.9375 37.75 C 24.62845 37.9961 24.499153 38.2405 24.5 38.4375 L 23.90625 43.25 C 23.90625 43.268 23.907043 43.2945 23.90625 43.3125 C 23.9006 43.4387 23.88485 43.5642 23.84375 43.6875 C 23.820383 43.7582 23.77308 43.8595 23.71875 43.9375 C 23.691588 43.9758 23.62626 43.98925 23.5625 44.03125 C 23.51098 44.06425 23.42841 44.09405 23.34375 44.09375 L 23.28125 44.09375 C 21.723666 43.92865 20.434406 43.6539 19.53125 43.25 C 19.073336 43.0454 18.707351 42.7775 18.4375 42.5 C 18.167642 42.2224 18 41.89925 18 41.53125 L 18 41.5 L 18.5625 37.5625 C 18.56238 37.5345 18.59185 37.55825 18.59375 37.53125 C 18.627454 37.06995 18.91355 36.6451 19.3125 36.375 C 19.734644 36.0892 20.234068 35.89115 20.8125 35.65625 C 21.928357 35.20285 23.162375 34.7247 23.84375 34.1875 C 23.92735 33.5766 23.91774 33.007 23.84375 32.4375 C 23.599122 32.1659 23.327367 31.8215 23.125 31.5625 C 22.893848 31.2663 22.71439 31.05695 22.625 30.78125 L 22.625 30.71875 C 22.186227 28.65545 22.14193 27.7701 22.125 27 C 22.125 24.7523 24.005529 22.90625 26.3125 22.90625 z "
       transform="translate(0,988.3622)"
       id="path3912" />
  </g>
</svg>

<!-- Created with Inkscape (http://www.inkscape.org/) -->
<svg xmlns="http://www.w3.org/2000/svg" viewBox="0 0 64 64">
 <g transform="translate(0,-988.3622)">
  <path d="m 6.06 10 c -1.129 0.111 -2.081 1.178 -2.063 2.313 l 0 39.38 c -0.014 1.215 1.098 2.326 2.313 2.313 l 51.38 0 c 1.215 0.014 2.326 -1.098 2.313 -2.313 l 0 -35.37 c 0.014 -1.215 -1.098 -2.326 -2.313 -2.313 l -19.688 0 l 0 -1.688 c 0.014 -1.194 -1.056 -2.294 -2.25 -2.313 l -29.438 0 c -0.083 -0.005 -0.167 -0.005 -0.25 0 z m 29.781 12 c 2.809 0 5.125 2.198 5.125 4.938 c -0.032 0.958 -0.053 2.01 -0.656 4.625 c -0.111 0.343 -0.312 0.709 -0.594 1.094 c -0.253 0.346 -0.579 0.703 -0.875 1.063 c -0.064 0.657 -0.061 1.343 0 2 c 0.82 0.688 2.316 1.325 3.688 1.906 c 0.706 0.299 1.362 0.577 1.875 0.906 c 0.257 0.165 0.482 0.322 0.656 0.531 c 0.163 0.196 0.265 0.446 0.281 0.719 c 0.001 0.018 0 0.044 0 0.063 l 0.656 4.813 l 0 0.063 c 0 0.597 -0.387 1.081 -0.938 1.469 c -0.55 0.388 -1.311 0.698 -2.219 0.969 c -1.816 0.542 -4.279 0.844 -7 0.844 c -2.721 0 -5.184 -0.302 -7 -0.844 c -0.908 -0.271 -1.637 -0.581 -2.188 -0.969 c -0.55 -0.388 -0.938 -0.872 -0.938 -1.469 l 0 -0.063 l 0.594 -4.813 c 0 -0.027 0.061 -0.035 0.063 -0.063 c 0.034 -0.571 0.384 -1.01 0.875 -1.344 c 0.515 -0.35 1.169 -0.617 1.875 -0.906 c 1.355 -0.554 2.853 -1.162 3.688 -1.813 c 0.108 -0.764 0.093 -1.383 0 -2.094 c -0.304 -0.337 -0.627 -0.712 -0.875 -1.031 c -0.277 -0.356 -0.423 -0.699 -0.531 -1.031 l -0.063 0 c -0.535 -2.515 -0.604 -3.685 -0.625 -4.625 c 0 -2.739 2.316 -4.938 5.125 -4.938 z m -9.531 0.906 c 1.046 0 2.045 0.427 2.781 1.031 l 0.219 0.094 l -0.125 0.25 c -0.133 0.419 -0.219 0.868 -0.219 1.25 c 0.02 0.909 0.065 1.922 0.594 4.406 c 0.078 0.241 0.077 0.437 0.125 0.719 l 0.063 0.125 l -0.063 0.125 c -0.142 0.344 -0.455 0.95 -0.875 1.531 c -0.002 0.018 0.002 0.013 0 0.031 c -0.057 0.557 -0.053 1.159 0 1.719 c 0.275 0.222 0.594 0.469 1.031 0.688 l 0.625 0.281 l -0.625 0.313 c -1.107 0.592 -2.471 1.045 -3.563 1.531 c -0.546 0.243 -1.035 0.504 -1.344 0.75 c -0.309 0.246 -0.438 0.49 -0.438 0.688 l -0.594 4.813 c 0 0.018 0.001 0.044 0 0.063 c -0.006 0.126 -0.021 0.252 -0.063 0.375 c -0.023 0.071 -0.071 0.172 -0.125 0.25 c -0.027 0.038 -0.092 0.052 -0.156 0.094 c -0.052 0.033 -0.134 0.063 -0.219 0.063 l -0.063 0 c -1.558 -0.165 -2.847 -0.44 -3.75 -0.844 c -0.458 -0.205 -0.824 -0.472 -1.094 -0.75 c -0.27 -0.278 -0.438 -0.601 -0.438 -0.969 l 0 -0.031 l 0.563 -3.938 c 0 -0.028 0.029 -0.004 0.031 -0.031 c 0.034 -0.461 0.32 -0.886 0.719 -1.156 c 0.422 -0.286 0.922 -0.484 1.5 -0.719 c 1.116 -0.453 2.35 -0.932 3.03 -1.469 c 0.084 -0.611 0.074 -1.181 0 -1.75 c -0.245 -0.272 -0.516 -0.616 -0.719 -0.875 c -0.231 -0.296 -0.411 -0.506 -0.5 -0.781 l 0 -0.063 c -0.439 -2.063 -0.483 -2.949 -0.5 -3.719 c 0 -2.248 1.881 -4.094 4.188 -4.094 z" transform="translate(0,988.3622)" style="visibility:visible;fill:#f06292;fill-opacity:1;stroke:none;display:inline;color:#000;fill-rule:nonzero"/>
 </g>
</svg>
